!!!!SEGMENT: 027-1e-W-001.krn
!!!COM: Chopin, Frederic
!!!OTL: 7e. NOCTURNE.
!!!OPS: Op. 27
!!!PTL: "LES PLAINTIVES" Quatrième Recueil de NOCTURNES
!!!PPR: Wessel
!!!PPP: London
!!!NIFC-rismID: 1001022569
!!!NIFC-shelfmark: PL-Wbfc 2003/n
!!!OMD: Larghetto.
!!!OMD: [half]=42.
**kern	**kern	**dynam
*part1	*part1	*part1
*staff2	*staff1	*
*clefF4	*clefG2	*
*k[f#c#g#d#]	*k[f#c#g#d#]	*
*c#:	*c#:	*
*M4/4	*M4/4	*
*met(c)	*met(c)	*
*MM84	*MM84	*
=1-	=1-	=1-
*ped	*	*
!LO:TX:b:i:t=Legato.	!	!
!	!	!LO:DY:rj
!LO:TX:a:t=P:note-head-side tuplet number:problem	!	!
(<12CC#L	1r	pp<
12GG#	.	.
12G#	.	.
12C#	.	.
12GG#	.	.
12CC#J	.	.
12GG#L	.	.
12C#	.	.
12G#	.	.
12C#	.	.
12GG#	.	.
12CC#J	.	[[
=2	=2	=2
12GG#L	1r	>
12C#	.	.
12G#	.	.
12C#	.	.
12GG#	.	.
12CC#J	.	.
12GG#L	.	.
12C#	.	.
12G#	.	.
12C#	.	.
12GG#	.	.
12CC#J)	.	]
!!LO:LB:g=original
=3	=3	=3
*Xtuplet	*	*
!	!LO:TX:i:b:t=sotto voce.	!
!	!LO:TX:a:t=P:kauda po prawej stronie:problem	!
12GG#L	(>2ee	.
12C#	.	.
12G#	.	.
12C#	.	.
*Xped	*	*
12GG#	.	.
*ped	*	*
12CC#J	.	.
12GG#L	4ee#X'>	<
12C#	.	.
12B	.	.
12C#	4ee#'>	[
12GG#	.	.
*Xped	*	*
12CC#J	.	.
=4	=4	=4
*ped	*	*
!	!LO:TX:a:t=P:kauda po prawej stronie:problem	!
12GG#L	2ee#X	.
12C#	.	.
12B	.	.
12C#	.	.
12GG#	.	.
*Xped	*	*
12CC#J	.	.
*ped	*	*
!	!LO:TX:a:t=P:kauda po prawej stronie:problem	!
12AAL	[>2ff#)	.
12C#	.	.
12A	.	.
12C#	.	.
12AA	.	.
*Xped	*	*
12CC#J	.	.
=5	=5	=5
*ped	*	*
12AAL	(>4ff#]	>
12Dn	.	.
12A	.	.
12D	8.eenL	.
12AA	.	.
*Xped	*	*
12CC#J	.	.
.	16ddnJk	]
*ped	*	*
12AAL	4cc#	.
12D	.	.
12A	.	.
12D	4b#X)	.
12AA	.	.
*Xped	*	*
12CC#J	.	.
!!LO:LB:g=original
=6	=6	=6
*ped	*	*
12GG#L	(>4cc#	.
12E	.	.
12c#	.	.
!	!LO:TX:a:t=P:kauda po prawej stronie:problem	!
12E	2gg^<#	.
12GG#	.	.
*Xped	*	*
12CC#J	.	.
*ped	*	*
12BBBL	.	.
12BB	.	.
12d#	.	.
!	!LO:TX:a:t=P:note-head-side tuplet number:problem	!
12A	12gg#L	.
12BB	12.ff#	.
*Xped	*	*
12BBBJ	.	.
.	24eeJk	.
=7	=7	=7
*ped	*	*
!	!LO:TX:a:t=P:kauda po prawej stronie:problem	!
12EEL	2ee	<
12BB	.	.
12e	.	.
12G#	.	.
12BB	.	.
*Xped	*	*
12DD#J	.	.
*ped	*	*
12CC#L	4ee'>	.
12GG#	.	.
12G#	.	.
12C#	4ee'>	[
12GG#	.	.
*Xped	*	*
12CC#J	.	.
=8	=8	=8
*ped	*	*
!	!LO:TX:a:t=P:kauda po prawej stronie:problem	!
12GG#L	2ee#X)	.
12C#	.	.
12B	.	.
12C#	.	.
12GG#	.	.
*Xped	*	*
12CC#J	.	.
*ped	*	*
!	!LO:TX:a:t=P:kauda po prawej stronie:problem	!
12AAL	[>2ff#	.
12C#	.	.
12A	.	.
12C#	.	.
12AA	.	.
*Xped	*	*
12CC#J	.	.
!!LO:LB:g=original
=9	=9	=9
*ped	*	*
12AAL	(>4ff#]	pp >
12Dn	.	.
12A	.	.
12D	8.eenyL	.
12AA	.	.
12CC#J	.	.
.	16ddnJk	.
12AAL	4cc#	.
12D	.	.
12A	.	.
12D	4b#X)	]
12AA	.	.
12CC#J	.	.
=10	=10	=10
12AAL	1rdd	[
12Dn	.	.
12A	.	.
12D	.	.
12AA	.	.
12CC#J	.	.
12AAL	.	.
12D	.	.
12A	.	.
12D	.	.
12AA	.	.
*Xped	*	*
12CC#J	.	.
=11	=11	=11
*	*^	*
*ped	*	*	*
12GG#L	(>4ccc#	4cc#	.
12E	.	.	.
12c#	.	.	.
12E	4gg#/^<	4ryy	.
12GG#	.	.	.
*Xped	*	*	*
12CC#J	.	.	.
*	*	*Xtuplet	*
*ped	*	*	*
12CC#L	2ryy	12ff#L	.
12GG#	.	12gg#	.
12B#X	.	12ff#J	.
*	*	*tuplet	*
12F#	.	8.eeL	.
12GG#	.	.	.
*Xped	*	*	*
12CC#J	.	.	.
.	.	16dd#Jk	.
*	*v	*v	*
!!LO:LB:g=original
=12	=12	=12
*ped	*	*
!	!LO:TX:a:t=P:kauda po prawej stronie:problem	!
12CC#L	2cc#	.
12GG#	.	.
12c#	.	.
12E	.	.
12GG#	.	.
*Xped	*	*
12CC#J	.	.
*ped	*	*
!	!LO:TX:a:t=P:kauda po prawej stronie:problem	!
12CC#L	2dd#	.
12GG#	.	.
12B#X	.	.
12F#	.	.
12GG#	.	.
*Xped	*	*
12CC#J	.	.
=13	=13	=13
*ped	*	*
12CC#L	8.eeL	.
12GG#	.	.
12c#	.	.
.	16ff#Jk	.
12E	4gg#	.
12GG#	.	.
*Xped	*	*
12CC#J	.	.
*ped	*	*
12GGG#L	4ff#	.
12GG#	.	.
12B#X	.	.
12F#	4ddn^>	.
12GG#	.	.
*Xped	*	*
12GGG#J	.	.
=14	=14	=14
*ped	*	*
!	!LO:TX:a:t=P:kauda po prawej stronie:problem	!
12CC#L	2cc#	.
12GG#	.	.
12c#	.	.
12E	.	.
12GG#	.	.
*Xped	*	*
12CC#J	.	.
*ped	*	*
12CC#L	4g#)	.
12GG#	.	.
12B#X	.	.
12F#	(>4gg#	.
12GG#	.	.
*Xped	*	*
12CC#J	.	.
!!LO:PB:g=original
=15	=15	=15
*ped	*	*
12CC#L	4ccc#	.
12GG#	.	.
12c#	.	.
12E	4gg^^>#	.
12GG#	.	.
*Xped	*	*
12CC#J	.	.
*	*Xtuplet	*
*ped	*	*
12CC#L	12ff#L	.
12GG#	12gg#	.
12B#X	12ff#J	.
*	*tuplet	*
12F#	8.eeL	.
12GG#	.	.
*Xped	*	*
12CC#J	.	.
.	16dd#Jk)	.
=16	=16	=16
*ped	*	*
!	!LO:TX:a:t=P:kauda po prawej stronie:problem	!
12CC#L	(>2cc#	.
12GG#	.	.
12c#	.	.
12E	.	.
12GG#	.	.
*Xped	*	*
12CC#J	.	.
*ped	*	*
!	!LO:TX:a:t=P:kauda pop prawej stronie:problem	!
12GGG#L	2dd#	.
12GG#	.	.
12B#X	.	.
12F#	.	.
12GG#	.	.
*Xped	*	*
12GGG#J	.	.
=17	=17	=17
*ped	*	*
12CC#L	8.eeL	.
12GG#	.	.
12c#	.	.
.	16ff#Jk	.
12E	4gg#	.
12GG#	.	.
*Xped	*	*
12CC#J	.	.
*ped	*	*
12FF#L	4ff#	.
12Dn	.	.
*Xped	*	*
12AJ	.	.
*ped	*	*
12GG#L/	4ddn^>	.
12F#/	.	.
*Xped	*	*
12B#XJ/	.	.
!!LO:LB:g=original
=18	=18	=18
*ped	*	*
12CC#L	1cc#)	.
12GG#	.	.
12c#	.	.
12E	.	.
12GG#	.	.
12CC#J	.	.
12CC#L	.	.
12GG#	.	.
12G#	.	.
12C#	.	.
12GG#	.	.
12CC#J	.	.
=19	=19	=19
!	!LO:TX:a:t=P:kauda po prawej stronie:problem	!
12GG#L	(>2ee	.
12C#	.	<
12G#	.	.
12C#	.	.
12GG#	.	.
12CC#J	.	.
12GG#L	4ee'>	.
12C#	.	.
12G#	.	.
12C#	4ee'>	.
12GG#	.	[
*Xped	*	*
12CC#J	.	.
=20	=20	=20
*	*^	*
*ped	*	*	*
12GG#L	2ee#X	4b	>
12C#	.	.	.
12G#	.	.	.
12C#	.	8.cc#L	.
12GG#	.	.	.
*Xped	*	*	*
12CC#J	.	.	.
.	.	16bJk)	]
*ped	*	*	*
12FF#L	(>2ff#	4b	.
12C#	.	.	.
12c#	.	.	.
12F#	.	8.aL	.
12C#	.	.	.
*Xped	*	*	*
12FF#J	.	.	.
.	.	16g#Jk	.
!!LO:LB:g=original
=21	=21	=21	=21
*ped	*	*	*
12FFF#L	4ff#	1f#	>
12FF#	.	.	.
12A	.	.	.
12Dn	8.eenXyL	.	.
12FF#	.	.	.
*Xped	*	*	*
12FFF#J	.	.	.
.	16ddnJk	.	.
*ped	*	*	*
12GGG#L	4cc#	.	.
12GG#	.	.	.
12G#	.	.	]]
12D#X	4b#X)	.	.
12GG#	.	.	.
*Xped	*	*	*
12GGG#J	.	.	.
=22	=22	=22	=22
*ped	*	*	*
12CC#L	(>4cc#	4e	.
12GG#	.	.	.
12c#	.	.	.
12E	2gg#	4r	.
12GG#	.	.	.
*Xped	*	*	*
12CC#J	.	.	.
*ped	*	*	*
12BBBL	.	(>20a'>LL	.
.	.	20b'>	.
12BB	.	.	.
.	.	20a'>	.
.	.	20g#'>	.
12d#	.	.	.
.	.	20a'>JJ)	.
12A	4ff#)	8.bL\	.
12BB	.	.	.
*Xped	*	*	*
12BBBJ	.	.	.
.	.	16f#Jk	.
!!LO:LB:g=original
=23	=23	=23	=23
*ped	*	*	*
12EEL	(>2ee	1g#	<
12BB	.	.	.
12e	.	.	.
12G#	.	.	.
12BB	.	.	.
*Xped	*	*	*
12DD#J	.	.	.
*ped	*	*	*
12CC#L	4ee'<	.	.
12GG#	.	.	.
12G#	.	.	.
12C#	4ee'<	.	[[
12GG#	.	.	.
*Xped	*	*	*
12CC#J	.	.	.
=24	=24	=24	=24
*ped	*	*	*
12CC#L	2ee#X	4b	<
12GG#	.	.	.
12c#	.	.	.
12E#X	.	8.cc#L	.
12GG#	.	.	.
*Xped	*	*	*
12CC#J	.	.	.
.	.	16bJk	[[
*ped	*	*	*
12CC#L	[>2ff#)	4b	.
12AA	.	.	.
12c#	.	.	.
12F#	.	8.aL	.
12AA	.	.	.
*Xped	*	*	*
12CC#J	.	.	.
.	.	16g#Jk	.
=25	=25	=25	=25
*ped	*	*	*
12CC#L	(>4ff#]	1f#	pp >
12AA	.	.	.
12A	.	.	.
12Dn	8.eennXyL	.	.
12AA	.	.	.
*Xped	*	*	*
12CC#J	.	.	.
.	16ddnJk	.	.
*ped	*	*	*
12CC#L	4cc#	.	.
12AA	.	.	.
12A	.	.	.
12D	[>4b#X	.	]
12AA	.	.	.
*Xped	*	*	*
12CC#J	.	.	.
!!LO:LB:g=original
=26	=26	=26	=26
*ped	*	*	*
!	!	!LO:TX:b:i:t=ritenuto.	!
!	!LO:N:vis=1	!	!
!	!LO:TX:a:t=P:brak zakończenia 1 łuku lub ligatury:problem	!	!
12CC#L	2b#X])	(>4f#	.
12AA	.	.	.
12A	.	.	.
12Dn	.	8.eL	.
12AA	.	.	.
*Xped	*	*	*
12CC#J	.	.	.
.	.	16dnJk	.
*ped	*	*	*
12CC#L	2r	4c#	.
12AA	.	.	.
12A	.	.	.
12D	.	4B#X)	.
12AA	.	.	.
*Xped	*	*	*
12CC#J	.	.	.
*	*v	*v	*
=27	=27	=27
*ped	*	*
(>12AAL	1rdd	.
12Dn	.	.
12A	.	.
12dn	.	.
12A	.	.
12DJ	.	.
12AAL	.	.
12D	.	.
12A	.	.
12D	.	.
12AA	.	.
12CC#J	.	.
=28	=28	=28
12DnL	1rdd	.
12A	.	.
12dn	.	.
12f#	.	.
12d	.	.
12AJ	.	.
12AAL	.	.
12D	.	.
12A	.	.
12D	.	.
12AA)	.	.
*Xped	*	*
12CC#J	.	.
!!LO:PB:g=original
==29||	==29||	==29||
*M3/4	*M3/4	*
*	*^	*
*^	*	*	*
!	!	!LO:TX:i:a:t=ten.	!	!
!	!	!LO:TX:B:a:t=Più mosso. [half]=54.	!	!
!	!	!	!LO:TX:a:t=P:kauda 2.f# 2.d# po prawej stronie:problem	!
!LO:N:vis=3/2	!	!	!	!
12BBB#XL	(<2.BBB#X	(>4.g#^< 4.G#	2.f# 2.d#	p
12FF##X	.	.	.	.
12GG#J	.	.	.	.
12AAL	.	.	.	.
12GG#	.	.	.	.
.	.	8g# 8G#	.	.
12AAJ	.	.	.	.
12GG#L	.	4g# 4G#	.	.
12AA	.	.	.	.
12GG#J)	.	.	.	.
=30	=30	=30	=30	=30
!	!	!LO:TX:i:a:t=ten.	!	!
!	!	!LO:TX:a:t=P:4. przed 2. (takty 30-44):problem	!	!
!LO:N:vis=3/2	!	!	!	!
12CC#L	(<2.CC#	2.g#^< 2.G#	4.c#	.
12FF##X	.	.	.	.
12GG#J	.	.	.	.
12AAL	.	.	.	.
12GG#	.	.	.	.
.	.	.	8e	.
12AAJ	.	.	.	.
12GG#L	.	.	4c#)	.
12AA	.	.	.	.
12GG#J)	.	.	.	.
=31	=31	=31	=31	=31
!	!	!LO:TX:i:a:t=ten.	!	!
!	!	!	!LO:TX:a:t=P:kauda 2.B# po prawej stronie:problem	!
!LO:N:vis=3/2	!	!	!	!
12DD#L	(<2.DD#	(>4.g#^< 4.G#	2.B#X	.
12FF##X	.	.	.	.
12GG#J	.	.	.	.
12AAL	.	.	.	.
12GG#	.	.	.	.
.	.	8g# 8G#	.	.
12AAJ	.	.	.	.
12GG#L	.	4g# 4G#	.	.
12AA	.	.	.	.
12GG#J)	.	.	.	.
=32	=32	=32	=32	=32
!	!	!LO:TX:i:a:t=ten.	!	!
!LO:N:vis=3/2	!	!	!	!
12EEL	(<2.EE)	2.g#^ 2.G#	4.c#	.
12FF##X	.	.	.	.
12GG#J	.	.	.	.
12AAL	.	.	.	.
12GG#	.	.	.	.
.	.	.	8e	.
12AAJ	.	.	.	.
12GG#L	.	.	4c#)	.
12AA	.	.	.	.
12GG#J)	.	.	.	.
!!LO:LB:g=original
=33	=33	=33	=33	=33
!LO:TX:i:a:t=poco a poco Cres.:dur=3qe:ext=ut:problem:text with extention lines	!	!	!	!
!	!	!	!LO:TX:a:t=P:kauda 2.b 2.g# po prawej stronie:problem	!
!LO:N:vis=3/2	!	!	!	!
12EE#XL	(<2.EE#X	(>4.cc#^> 4.c#	2.b 2.g#	.
12BB#X	.	.	.	.
12C#J	.	.	.	.
12DnL	.	.	.	.
12C#	.	.	.	.
.	.	8cc# 8c#	.	.
12DJ	.	.	.	.
12C#L	.	4cc# 4c#	.	.
12D	.	.	.	.
12C#J)	.	.	.	.
=34	=34	=34	=34	=34
!LO:N:vis=3/2	!	!	!	!
12FF#L	(<2.FF#	2.cc#^> 2.c#	4.f#	.
12BB#X	.	.	.	.
12C#J	.	.	.	.
12DnL	.	.	.	.
12C#	.	.	.	.
.	.	.	8a	.
12DJ	.	.	.	.
12C#L	.	.	4f#)	.
12D	.	.	.	.
12C#J)	.	.	.	.
=35	=35	=35	=35	=35
!	!	!	!LO:TX:a:t=P:kauda 2.e# po prawej stronie:problem	!
!LO:N:vis=3/2	!	!	!	!
12GG#L	(<2.GG#	(>4.cc#^< 4.c#	2.e#X	.
12BB#X	.	.	.	.
12C#J	.	.	.	.
12DnL	.	.	.	.
12C#	.	.	.	.
.	.	8cc# 8c#	.	.
12DJ	.	.	.	.
12C#L	.	4cc# 4c#	.	.
12D	.	.	.	.
12C#J)	.	.	.	.
=36	=36	=36	=36	=36
!LO:N:vis=3/2	!	!	!	!
12AAL	(<2.AA	2.cc#^< 2.c#	4.f#	.
12BB#X	.	.	.	.
12C#J	.	.	.	.
12DnL	.	.	.	.
12C#	.	.	.	.
.	.	.	8a	.
12DJ	.	.	.	.
12C#L	.	.	4f#)	.
12D	.	.	.	.
12C#J)	.	.	.	.
*v	*v	*	*	*
!!LO:LB:g=original
=37	=37	=37	=37
*	*	*	*^
*	*	*ped	*	*
!	!LO:TX:a:t=P:kauda 2.ff# 2.dd# po prawej stronie:problem	!	!	!
!	!	!	!	!LO:DY:b=2
!	!	!	!LO:DY:rj	!
(>12BB#XL\ 12BBB#X	(>4..gg#^< 4..g#	2.ff# 2.dd#	f	fz
12F##X	.	.	.	.
12G#J	.	.	.	.
12AL	.	.	.	.
12G#	.	.	.	.
12F##J	.	.	.	.
.	16gg# 16g#	.	.	.
12G#L	4gg# 4g#	.	.	.
12d#	.	.	.	.
*	*	*Xped	*	*
12G#J)	.	.	.	.
*	*	*	*v	*v
=38	=38	=38	=38
*	*	*ped	*
!	!	!	!LO:DY:b=2
!	!	!	!LO:DY:rj
(>12C#L 12CC#	2.gg#^< 2.g#	4..cc#	fz
12F##X	.	.	.
12G#J	.	.	.
12AL	.	.	.
12G#	.	.	.
12F##J	.	.	.
.	.	16ee	.
12G#L	.	4cc#)	.
12e	.	.	.
*	*	*Xped	*
12G#J)	.	.	.
=39	=39	=39	=39
*	*	*ped	*
!	!	!	!LO:DY:rj
!	!	!	!LO:DY:b=2
!	!	!LO:TX:a:t=P: kauda 2.b# po prawej stronie:problem	!
(>12D#L 12DD#	(>4..gg#^< 4..g#	2.b#X	fz
12F##X	.	.	.
12G#J	.	.	.
12AL	.	.	.
12G#	.	.	.
12F##J	.	.	.
.	16gg# 16g#	.	.
12G#L	4gg# 4g#	.	.
12f#X	.	.	.
*	*	*Xped	*
12G#J)	.	.	.
=40	=40	=40	=40
*	*	*ped	*
!	!	!	!LO:DY:b=2
!	!	!	!LO:DY:rj
(>12EL 12EE	2.gg#^< 2.g#	4..cc#	fz
12F##X	.	.	.
12G#J	.	.	.
12AL	.	.	.
12G#	.	.	.
12F##J	.	.	.
.	.	16ee	.
12G#L	.	4cc#)	.
12g#	.	.	.
*	*	*Xped	*
12G#J)	.	.	.
!!LO:LB:g=original
=41	=41	=41	=41
*	*	*ped	*
!	!LO:TX:i:a:t=sempre più stretto.	!	!
!	!	!LO:TX:a:t=P:kauda 2bb 2gg# po prawej stronie:problem	!
!	!	!	!LO:DY:b=2
!	!	!	!LO:DY:rj
(<12E#XL 12FF#X	(>4..ccc#^< 4..cc#	2bb 2gg#	fz
12B#X	.	.	.
12c#J	.	.	.
12dnL	.	.	.
12c#	.	.	.
12B#J	.	.	.
.	16ccc# 16cc#	.	.
!	!LO:TX:a:t=P:note-head-side tuplet number:problem	!	!
12c#L	12ccc#/L 12cc#/	4ryy	.
12bn	12ccc# 12cc#	.	.
*	*	*Xped	*
12c#J)	12ccc#J 12cc#	.	.
=42	=42	=42	=42
*	*	*ped	*
!	!	!	!LO:DY:b=2
!	!	!	!LO:DY:rj
(<12F#L 12FF#	2.ccc# 2.cc#	4..ff#	fz
12B#X	.	.	.
12c#J	.	.	.
12dnL	.	.	.
12c#	.	.	.
12B#J	.	.	.
.	.	16aa	.
12c#L	.	4ff#)	.
12a	.	.	.
*	*	*Xped	*
12c#J)	.	.	.
=43	=43	=43	=43
*	*	*ped	*
!	!	!LO:TX:a:t=P:kauda 2.ee# po prawej stronie:problem	!
!	!	!	!LO:DY:b=2
!	!	!	!LO:DY:rj
(12G#L 12GG#	(>[>4ccc# [<4cc#	2.ee#X	fz
12B#X	.	.	.
12c#J	.	.	.
!	!	!LO:TX:a:t=P:problem:"3" w trioli na dole	!
!	!LO:TX:a:t=P:staccato na górze i na dole:problem	!	!
12dnL	12ccc#'>L] 12cc#'<]	.	.
12c#	12ccc#'> 12cc#'<	.	.
12B#J	12ccc#'>J 12cc#'<	.	.
12c#L	12ccc#'>L 12cc#'<	.	.
12g#	12ccc#'> 12cc#'<	.	.
*	*	*Xped	*
12c#J)	12ccc#'>J 12cc#'<	.	.
=44	=44	=44	=44
*	*	*ped	*
!	!	!	!LO:DY:b=2
!	!	!	!LO:DY:rj
(<12AL 12AA	2.ccc# 2.cc#	4..ff#	fz
12B#X	.	.	.
12c#J	.	.	.
12dnL	.	.	.
12c#	.	.	.
12B#J	.	.	.
.	.	16aa	.
12c#L	.	4ff#)	.
12cc#	.	.	.
*	*	*Xped	*
12c#J)	.	.	.
*	*v	*v	*
!!LO:LB:g=original
=45	=45	=45
*	*ped	*
!	!	!LO:DY:rj
12AAA#X'<L	4..eee 4..ccc# 4..ff##X 4..ee	ff
!	!LO:TX:i:a:t=Appassionato.	!
12C#'<	.	.
12CC#'<J	.	.
12E'<L	.	.
12EE'<	.	.
12F##X'<J	.	.
.	16eee 16ccc# 16ff## 16ee	.
12FF##X'<L	4eee 4ccc# 4ff## 4ee	.
12A#X'<	.	.
*	*Xped	*
12AA#X'<J	.	.
=46	=46	=46
*	*ped	*
12BB'>L	(>4eee 4gg# 4ee	>
(>12B	.	.
12G#J	.	.
12eL	4bb 4gg# 4ee	.
12B	.	.
12g#J	.	.
12eL	4gg# 4ee 4b	]
12B	.	.
*	*Xped	*
12G#J)	.	.
=47	=47	=47
*	*ped	*
.	16qqgg#/	.
12BBB'<L	4ff#^> 4dd# 4b 4a	<
(<12BB	.	.
12F#J	.	.
12BL	4ee^> 4cc# 4b 4a	.
12F#	.	.
12d#J	.	.
12BL	4ff#^> 4dd# 4b 4a	.
12F#	.	.
*Xped	*	*
12BBJ)	.	.
=48	=48	=48
*	*^	*
!	!LO:TX:b:t=P:4.ee przed 2.gg# 2.g# z kropką:problem	!	!
*ped	*	*	*
(<12EEL	2.gg#^< 2.g#	4.ee	.
12E	.	.	.
12BBJ)	.	.	.
(<12EEL	.	.	.
12G#	.	.	.
.	.	8dd#	.
*Xped	*	*	*
12BBJ)	.	.	.
*ped	*	*	*
(<12EEL	.	4ddn)	[
12B	.	.	.
*Xped	*	*	*
12BBJ)	.	.	.
*	*v	*v	*
*kcancel	*kcancel	*
!!LO:LB:g=original
==49||	==49||	==49||
*k[b-e-a-d-]	*k[b-e-a-d-]	*
*	*ped	*
!	!	!LO:DY:rj
12EE-'<L	(>4..aa- 4..ee- 4..cc 4..a-	fff
!	!LO:TX:i:a:t=Sostenuto.	!
12E-'<	.	.
12EE-'<J	.	.
!LO:TX:b:t=P:mixed beam:problem	!	!
12A-'>L\	.	.
12EE-'</	.	.
12c'>J\	.	.
.	16aa- 16ee- 16cc 16a-	.
!LO:TX:b:t=P:mixed beam:problem	!	!
12EE-'<L/	4aa- 4ee- 4cc 4a-	.
12e-'>\	.	.
12EE-'<J/	.	.
*clefG2	*	*
=50	=50	=50
12a-'<L	4.aa- 4.ee- 4.cc	>
12e-'<	.	.
12cc'<J	.	.
12a-'<L	.	.
12e-'<	.	.
.	8ee- 8cc 8a-	]
12c'<J	.	.
*clefF4	*	*
12A-'<L	4cc 4a- 4e-\)	.
12E-'<	.	.
*	*Xped	*
(<12EE-J	.	.
=51	=51	=51
*	*^	*
*	*^	*	*
*	*	*	*ped	*
!	!	!LO:TX:a:t=P: 4.cc za 2.ee:problem	!	!
(>12EEE-L)	(>2.ee-^>	4.cc/	2g 2e- 2d-	.
!	!	!LO:TX:i:a:t=Ritenuto.	!	!
12EE-	.	.	.	.
12BB-J	.	.	.	.
12GL	.	.	.	.
12E-	.	.	.	.
.	.	8b-/	.	.
12BB-J	.	.	.	.
12EE-L	.	8.dd-L/	4g 4d-	>
12E-	.	.	.	.
12e-J)	.	.	.	.
*	*	*	*Xped	*
.	.	16ccJk	.	]
*	*v	*v	*v	*
=52	=52	=52
*	*	*^
*	*ped	*	*
12AAA-'<L	2.a- 2.c)	.	.
!	!	!LO:HP:vg=1	!
(<12E-	.	>	.
12AA-J	.	.	.
12E-L	.	.	>
12AA-	.	.	.
12E-J	.	.	.
12AA-L	.	.	.
12E-	.	.	.
12AA-J)	.	]	.
*	*Xped	*	*
.	.	.	.
*	*	*v	*v
!!LO:PB:g=original
=53	=53	=53
*	*^	*
!	!LO:TX:a:B:t=Agitato.	!	!
!	!LO:TX:i:b:t=sotto voce.	!	!
*ped	*	*	*
!	!	!LO:TX:a:t=P:kauda po prawej stronie 2. z (do t. 62):problem	!
(<12F-X^<L/	(>4.b--^>	2.d-	.
12AA-	.	.	.
12F-J	.	.	.
12AA-L	.	.	.
12F-	.	.	.
.	8b--	.	.
12AA-J	.	.	.
12F-L/	4b--	.	.
12AA-	.	.	.
*Xped	*	*	*
12F-J	.	.	.
=54	=54	=54	=54
*ped	*	*	*
12AA-L	4.b--^>	2.c	.
12E-^<	.	.	.
12AA-J	.	.	.
12E-L	.	.	.
12AA-	.	.	.
.	8a-	.	.
12E-J	.	.	.
!LO:TX:i:a:t=poco a poco Cres ed Accelerando.:dur=18q:ext=ut:problem:text with extention lines	!	!	!
12AA-L	4e-)	.	.
12E-	.	.	.
*Xped	*	*	*
12AA-J	.	.	.
=55	=55	=55	=55
*ped	*	*	*
12Fn^<L/	4.cc-X^>	2.dn	.
12AA-	.	.	.
12FJ	.	.	.
12AA-L	.	.	.
12F	.	.	.
.	8cc-	.	.
12AA-J	.	.	.
12FL	4cc-	.	.
12AA-/	.	.	.
*Xped	*	*	*
12FJ	.	.	.
=56	=56	=56	=56
*ped	*	*	*
12AA-L	4.cc-X^>	2.e-	.
12G-X^<	.	.	.
12AA-J	.	.	.
12G-L	.	.	.
12AA-/	.	.	.
.	8b-	.	.
12G-J	.	.	.
12AA-L	4ee-	.	.
12G-	.	.	.
*Xped	*	*	*
12AA-J)	.	.	.
!!LO:LB:g=original
=57	=57	=57	=57
*ped	*	*	*
(<12F^<L	(>4.cc-X^>	2.dn	.
12AA-/	.	.	.
12FJ	.	.	.
12AA-L	.	.	.
12F	.	.	.
.	8cc-	.	.
12AA-J	.	.	.
12FL	4cc-	.	.
12AA-/	.	.	.
*Xped	*	*	*
12FJ	.	.	.
=58	=58	=58	=58
*ped	*	*	*
12AA-L	4.cc-X^>	2.e-	.
12G-X^<	.	.	.
12AA-J	.	.	.
12G-L	.	.	.
12AA-/	.	.	.
.	8b-	.	.
12G-J	.	.	.
12AA-L	4e-)	.	.
12G-	.	.	.
*Xped	*	*	*
12AA-J	.	.	.
=59	=59	=59	=59
*ped	*	*	*
12Gn^<L	(>4.dd-^>	2.en	.
12AA-/	.	.	.
12GJ	.	.	.
12AA-L	.	.	.
12G	.	.	.
.	8dd-	.	.
12AA-J	.	.	.
12GL	4dd-	.	.
12AA-/	.	.	.
*Xped	*	*	*
12GJ	.	.	.
=60	=60	=60	=60
*ped	*	*	*
12AA-L	4.dd-^>	2.f	.
12A-^<	.	.	.
12AA-J	.	.	.
!LO:TX:i:a:t=Accellerando.	!	!	!
12A-L	.	.	.
12AA-/	.	.	.
.	8cc	.	.
12A-J	.	.	.
12AA-L	4ff)	.	.
12A-	.	.	.
*Xped	*	*	*
12AA-J)	.	.	.
!!LO:LB:g=original
=61	=61	=61	=61
*ped	*	*	*
(>12G^>L	(>4.dd-^>	2.en	.
12AA-	.	.	.
12GJ	.	.	.
12AA-L	.	.	.
12G\	.	.	.
.	8dd-	.	.
12AA-J	.	.	.
12GL	4dd-	.	.
12AA-	.	.	.
*Xped	*	*	*
12GJ	.	.	.
=62	=62	=62	=62
*ped	*	*	*
12AA-L	4.dd-^>	2.f	.
12A-^>\	.	.	.
12AA-J	.	.	.
12A-L	.	.	.
12AA-	.	.	.
.	8cc	.	.
12A-J	.	.	.
12AA-L	4f	.	.
12A-\	.	.	.
*Xped	*	*	*
12AA-J	.	.	.
*	*v	*v	*
=63	=63	=63
*ped	*	*
12B--L	4ee-^> 4cc 4g-X	.
12AA-	.	.
12B--J	.	.
12AA-L	4ee-^> 4cc 4g-	.
12B--\	.	.
12AA-J	.	.
12B--L	4ee-^> 4cc 4g-	.
12AA-	.	.
12B--J	.	.
=64	=64	=64
!	!LO:TX:i:a:t=Ritenuto.	!
4B-- 4AA-	4ee- 4cc 4g-X	<
4B-- 4AA-	4ee- 4cc 4g-	.
*Xped	*	*
4A- 4AA-)	4een 4cc 4g-	[[
=65	=65	=65
!	!LO:TX:i:a:t=con anima.	!
*ped	*	*
!	!	!LO:DY:rj
4d- 4A- 4D-	4ff 4dd- 4f	f >
4d- 4A- 4D-	4dd-\ 4f	.
*Xped	*	*
4d- 4A- 4D-	4a- 4f	]
=66	=66	=66
*^	*^	*
*ped	*	*	*	*
!	!	!LO:TX:i:a:t=ten.	!	!
!	!	!	!LO:TX:a:t=P:kauda 2.g- po prawej stronie:problem	!
2.d- 2.G-X	4rGG	2.b-)	2.g-X^<	[
.	4GG-X'</	.	.	.
.	4GGG-X'</	.	.	.
*v	*v	*	*	*
!!LO:LB:g=original
=67	=67	=67	=67
*ped	*	*	*
4DD-'<	(8a-L	4f	<
.	8gnJ	.	.
8d-L 8A- 8D-	8a-L'>	8fL	.
8d- 8A- 8D-	8b-'>	8f	.
8d- 8A- 8D-	8cc'>	8f	.
*Xped	*	*	*
8d-J 8A- 8D-	8dd-J'>	8fJ	.
=68	=68	=68	=68
4c 4B-- 4D-X	4ddn'>	4g-X	.
4c 4B-- 4D-	4ee-'>	4g-	.
4c 4A- 4D-	4een'>	4g-)	[
=69	=69	=69	=69
4d- 4A- 4D-	(>4ff^^>	4f	>
4d- 4A- 4D-	4dd-^^>	4f	.
4d- 4A- 4D-	4a-^^>	4f	]
=70	=70	=70	=70
*^	*	*	*
!	!	!LO:TX:i:a:t=ten.	!	!
*ped	*	*	*	*
!	!	!	!LO:TX:a:t=P:kauda 2.g- po prawej stronie:problem	!
2.d- 2.G-X	4rGG	2.b-	2.g-X^<)	.
.	4GG-X'</	.	.	.
.	4GGG-X'</	.	.	.
*Xped	*	*	*	*
.	.	.	.	.
*v	*v	*	*	*
=71	=71	=71	=71
*ped	*	*	*
4DD-'<	(>8a-L	4f	<
.	8gnJ	.	.
8d-L 8A- 8D-	8a-L	8fL	.
8d- 8A- 8D-	8b-	8f	.
8d- 8A- 8D-	8cc	8f	.
*Xped	*	*	*
8d-J 8A- 8D-	8dd-J	8fJ	[
=72	=72	=72	=72
4G 4D-	4bn	4f	.
4G 4C	4cc	4en	.
4Bn 4G 4C	4ddn	4f	.
.	.	.	.
=73	=73	=73	=73
!	!	!	!LO:DY:rj
4c 4G 4C	4een	4en	pp
4c 4G 4C	4cc	4e	.
4c 4G 4C	4g)	4e	.
!!LO:LB:g=original
=74	=74	=74	=74
*^	*	*	*
!	!	!LO:TX:i:a:t=ten.	!	!
*ped	*	*	*	*
!	!	!	!LO:TX:a:t=P:kauda 2.f po prawej stronie:problem	!
2.c 2.F	4rGG	2.an	2.f^<	.
.	4FF'</	.	.	.
.	4FFF'</	.	.	.
*Xped	*	*	*	*
.	.	.	.	.
*v	*v	*	*	*
=75	=75	=75	=75
*ped	*	*	*
4CC'<	(>8gm>L	4en	<
.	8f#XJ	.	.
8cL 8G 8C	8gL'>	8eL	.
8c 8G 8C	8an'>	8e	.
8c 8G 8C	8bn'>	8e	.
*Xped	*	*	*
8cJ 8G 8C	8ccJ'>	8eJ	[
=76	=76	=76	=76
4Bn 4A- 4C	4cc#X'>	4f	.
4B 4A- 4C	4ddn'>	4f	.
4B 4G 4C	4dd#X'>	4f	.
=77	=77	=77	=77
4c 4G 4C	4een	4en	>
4c 4G 4C	4cc	4e	.
4c 4G 4C	4g)	4e	]
=78	=78	=78	=78
!	!LO:TX:i:b:t=Cres ed accel.:dur=7q:ext=ut:problem:text with extention lines	!	!
4Bn 4A-	(>4ddn\	4f	.
4c 4An	4ee-\	4g-X	.
4dn 4B	4ff\	4a-	.
=79	=79	=79	=79
4e- 4c	4gg-X	4b--	.
4e- 4c	4ee-	4b--	.
4e- 4c	4b--	4b--	.
*	*v	*v	*
=80	=80	=80
4dn 4Bn	4ff 4a-	.
4e- 4c	4gg-X 4b--	.
4f 4d	4aa- 4cc-X)	.
!!LO:LB:g=original
==81||	==81||	==81||
*k[f#c#g#d#]	*k[f#c#g#d#]	*
!	!	!LO:DY:rj
4f# 4d#	(>4aa 4b#X	fff <
4f# 4d#	4aa 4b# 4a	.
4f# 4d#	4aa 4b# 4a	.
=82	=82	=82
4f# 4d#	4aa 4b#X 4a	.
4f# 4d#	4aa 4b# 4a	.
4f# 4c#	4aa 4cc# 4a	[
=83	=83	=83
*	*^	*
*	*^	*^	*
!LO:TX:b:t=P:kauda 2.f# 2.B# oraz 2.aa po prawej stronie (też w 2a):problem	!	!	!	!	!
2.f# 2.B#X	2.aa	4ee/	2ryy	2a	.
.	.	2dd#/	.	.	.
.	.	.	4gg# 4ff#/)	4g#	.
*	*v	*v	*v	*v	*
=84-	=84-	=84-
*cue	*	*
!LO:TX:b:t=Con forza.	!	!
(>4BB 4Bny	2.ryy	<
4C# 4c#	.	.
4C## 4c##	.	[
4.E 4.e	2yy	>
8D# 8d#	.	]
*Xtuplet	*	*
*rscale:2	*	*
!LO:N:acc=n#	!	!
20C# 20c#L	2.ryy	.
20BB 20B	.	.
20AA 20A	.	.
20GG# 20G#	.	.
20FF## 20F##	.	.
20GG# 20G#	.	.
20BBn'< 20Bn'<	.	.
20AA'< 20A'<	.	.
20GG#'< 20G#'<	.	.
20FF#'< 20F#'<	.	.
20EE'< 20E'<	.	.
20DD#'< 20D#'<	.	.
20CC#'< 20C#'<	.	.
20BBB#'< 20BB#'<	.	.
20DD#'< 20D#J'<)	.	.
*rscale:1	*	*
*tuplet	*	*
(<2AAA^> 2AA	2.ryy	.
4GGG# 4GG#)	.	.
(<4FFF## 4FF##X	2ryy	.
4GGG# 4GG#)	.	.
!LO:TX:a:t=P:note-head-side tuplet number:problem	!	!
(<6DDD# 6DD#	6ryy	.
!LO:N:acc=n#	!	!
6.FFFn# 6.FF.n#	6.ryy	.
12EEE 12EE)	12ryy	.
*Xcue	*	*
!!LO:PB:g=original
==85||	==85||	==85||
*	*	*^
*M4/4	*M4/4	*	*
*met(c)	*met(c)	*	*
*ped	*	*	*
*Xtuplet	*	*	*
!	!LO:TX:a:B:t=Tempo Primo.	!	!
!	!LO:TX:b:i:t=sotto voce.	!	!
!	!	!	!LO:DY:b=2
!	!	!	!LO:DY:rj
(<12CC#L	1r	<	fz
!	!	!	!LO:DY:b=2
12GG#	.	.	p
!LO:TX:b:i:t=Legato.	!	!	!
12G#	.	.	.
12C#	.	.	.
12GG#	.	.	.
12CC#J	.	[	.
12GG#L	.	>	.
12C#	.	.	.
12G#	.	.	.
12C#	.	.	.
12GG#	.	.	.
12CC#J	.	]	.
*	*	*v	*v
=86	=86	=86
12GG#L	1rdd	.
12C#	.	.
12G#	.	.
12C#	.	.
12GG#	.	.
12CC#J	.	.
12GG#L	.	.
12C#	.	.
12G#	.	.
12C#	.	.
12GG#	.	.
*Xped	*	*
12CC#J)	.	.
=87	=87	=87
*ped	*	*
!	!LO:TX:a:t=P:kauda 2ee po prawej stronie:problem	!
(>12GG#L	(>2ee	.
12C#	.	<
12G#	.	.
12C#	.	.
12GG#	.	.
*Xped	*	*
12CC#J	.	.
*ped	*	*
12GG#L	4ee#X'>	.
12C#	.	.
12B	.	.
12C#	4ee#'>	.
12GG#	.	[
*Xped	*	*
12CC#J	.	.
=88	=88	=88
*ped	*	*
!	!LO:TX:a:t=P:kauda 2ee# i 2ff# po prawej stronie:problem	!
12GG#L	2ee#X	.
12C#	.	.
12B	.	.
12C#	.	.
12GG#	.	.
*Xped	*	*
12CC#J	.	.
*ped	*	*
12AAL	[>2ff#)	.
12C#	.	.
12A	.	.
12C#	.	.
12AA	.	.
*Xped	*	*
12CC#J)	.	.
!!LO:LB:g=original
=89	=89	=89
*ped	*	*
!	!LO:TX:a:t=P:łuk zaczyna się przed nutą:problem	!
12AAL	(>4ff#]	>
12Dn	.	.
12A	.	.
12D	8.eenL	.
12AA	.	.
*Xped	*	*
12CC#J	.	.
.	16ddnJk	.
*ped	*	*
12AAL	4cc#	]
12D	.	.
12A	.	.
12D	4b#X)	.
12AA	.	.
*Xped	*	*
12CC#J	.	.
=90	=90	=90
*	*^	*
*ped	*	*	*
12GG#L	(>4cc#	4r	.
12E	.	.	.
12c#	.	.	.
12E	2gg#^>	8rg	.
12GG#	.	.	.
.	.	16r	.
*Xped	*	*	*
12CC#J	.	.	.
.	.	16a	.
*ped	*	*	*
12BBBL	.	(>20a'>LL	.
.	.	20b'>	.
12BB	.	.	.
.	.	20a'>	.
.	.	20g#'>	.
12d#	.	.	.
.	.	20a'>JJ)	.
12A	4ff#)	8.bL	.
12BB	.	.	.
*Xped	*	*	*
12BBBJ	.	.	.
.	.	16f#Jk	.
=91	=91	=91	=91
*ped	*	*	*
12EEL	(>2ee	1g#	<
12BB	.	.	.
12e	.	.	.
12G#	.	.	.
12BB	.	.	.
*Xped	*	*	*
12DD#J	.	.	.
*ped	*	*	*
12CC#L	4ee'<	.	.
12GG#	.	.	.
12G#	.	.	.
12C#	4ee'<	.	[[
12GG#	.	.	.
*Xped	*	*	*
12CC#J	.	.	.
!!LO:LB:g=original
=92	=92	=92	=92
*ped	*	*	*
12CC#L	2ee#X	4b	.
!	!	!	!LO:HP:a
12GG#	.	.	<
12c#	.	.	.
12E#X	.	8.cc#L	.
12GG#	.	.	.
*Xped	*	*	*
12CC#J	.	.	.
.	.	16bJk	[[
*ped	*	*	*
12CC#L	[>2ff#)	4b	.
12AA	.	.	.
12c#	.	.	.
12F#	.	8.aL	.
12AA	.	.	.
*Xped	*	*	*
12CC#J	.	.	.
.	.	16g#Jk	.
=93	=93	=93	=93
*ped	*	*	*
12CC#L	(>4ff#]	1f#	pp >
12AA	.	.	.
12A	.	.	.
12Dn	8.eeL	.	.
12AA	.	.	.
12CC#J	.	.	.
.	16ddnJk	.	.
12CC#L	4cc#	.	.
12AA	.	.	.
12A	.	.	.
12D	4b#X)	.	]
12AA	.	.	.
*Xped	*	*	*
12CC#J	.	.	.
=94	=94	=94	=94
*ped	*	*	*
!LO:TX:a:i:t=con Duolo.	!	!LO:TX:i:a:t=ritenuto.	!
12CC#L	1b#	(>4f#^<	.
12AA	.	.	.
12A	.	.	.
12Dn	.	8.e^^>L	.
12AA	.	.	.
*Xped	*	*	*
12CC#J	.	.	.
.	.	16dn^^>Jk	.
*ped	*	*	*
12CC#L	.	4c#^^>	.
12AA	.	.	.
12A	.	.	.
12D	.	4B#X^^>)	.
12AA	.	.	.
*Xped	*	*	*
12CC#J	.	.	.
.	.	.	.
=95	=95	=95	=95
*ped	*	*	*
!	!	!	!LO:DY:rj
12CC#L	4c#^>	4c#	fz
12GG#	.	.	.
12c#	.	.	.
!	!LO:TX:a:i:t=Calando.	!	!
.	.	.	.
12E#X	(>4ee#X	4cc#	p
12GG#	.	.	.
*Xped	*	*	*
12CC#J	.	.	.
*ped	*	*	*
12CC#L	4a#X	4f#	.
12GG#	.	.	.
12B#X	.	.	.
12D#	4dd#	8.b#XL	.
12GG#	.	.	.
*Xped	*	*	*
12CC#J	.	.	.
.	.	16a#Jk	.
!!LO:LB:g=original
=96	=96	=96	=96
*ped	*	*	*
12CC#L	4g#	4e#X	.
12GG#	.	.	.
12A#X	.	.	.
12C#	4cc#	4a#X	.
12GG#	.	.	.
*Xped	*	*	*
12CC#J	.	.	.
*ped	*	*	*
12CC#L	4f#	4d#	.
12GG#	.	.	.
12G#	.	.	.
12BB#X	8.b#XL	8.g#L	.
12GG#	.	.	.
*Xped	*	*	*
12CC#J	.	.	.
.	16a#XJk)	16f#Jk	.
=97	=97	=97	=97
*ped	*	*	*
!LO:TX:a:i:t=Rallentando.	!	!	!
!	!	!LO:TX:a:t=P:kauda 2g# 2e# po prawej stronie:problem	!
12CC#L	4rff	2g# 2e#X	.
12GG#	.	.	.
12c#	.	.	.
12E#X	(>2ee#X 2cc#	.	.
12GG#	.	.	.
*Xped	*	*	*
12CC#J	.	.	.
*ped	*	*	*
!	!	!LO:TX:a:t=P:kauda 2a# 2f# po prawej stronie:problem	!
12CC#L	.	2a#X 2f#	.
12GG#	.	.	.
12B#X	.	.	.
12D#	[>4dd# 4b#X	.	.
12GG#	.	.	.
*Xped	*	*	*
12CC#J	.	.	.
=98	=98	=98	=98
*	*	*^	*
*ped	*	*	*	*
!	!	!LO:TX:a:t=P:kauda 2g# 2e# po prawej stronie:problem	!	!
12CC#L	4dd#] 4b#	2g# 2e#X	2ryy	.
12GG#	.	.	.	.
12A#X	.	.	.	.
12C#	2cc# 2a#X	.	.	.
12GG#	.	.	.	.
*Xped	*	*	*	*
12CC#J	.	.	.	.
*ped	*	*	*	*
!	!	!	!LO:TX:a:t=P:kauda 2d# po prawej stronie:problem	!
12CC#L	.	4f#/	2d#\	.
12GG#	.	.	.	.
12G#	.	.	.	.
12BB#X	8.b#XL	8.g#L	.	.
12GG#	.	.	.	.
*Xped	*	*	*	*
12CC#J	.	.	.	.
.	16a#Jk)	16f#Jk	.	.
*	*v	*v	*v	*
!!LO:LB:g=original
=99	=99	=99
*ped	*	*
12CC#L	&(>1g#^> 1e	.
12GG#	.	.
12G#	.	.
12C#	.	.
12GG#	.	.
12CC#J	.	.
12GG#L	.	.
12C#	.	.
12G#	.	<
12C#	.	.
12GG#	.	.
*Xped	*	*
12CC#J	.	.
=100	=100	=100
*ped	*	*
!	!LO:TX:a:B:t=Adagio.	!
12FF#L	2a#X 2g#X 2c#	.
12C#	.	.
12c#	.	.
12F#	.	.
12C#	.	.
*Xped	*	*
12FF#J	.	.
*ped	*	*
12FFF#L	2a# 2f# 2c#	[[
12C#	.	.
12c#	.	.
12F#	.	.
*Xped	*	*
12C#	.	.
12FF#J	.	.
.	.	.
=101	=101	=101
*	*	*^
*ped	*	*	*
!	!	!	!LO:DY:b=2
!	!	!	!LO:DY:rj
(<12CCC#'<L	([>2cc# [>2g# 2f#	>	fz
12CC#'<	.	.	.
12GG#'<	.	.	.
12C#'<	.	.	.
12G#'<	.	.	.
12c#'<J)	.	.	.
!	!	!	!LO:DY:a
!	!	!LO:DY:rj	!LO:DY:rj
4e#>^<\	4cc#] 4g#]&))	] fz	p
*Xped	*	*	*
.	.	.	.
*ped	*	*	*
!	!	!	!LO:DY:rj
(<[>4G# [>4E#X [<4C# [<4GG#\	(>4#G< 4E#X</	.	pp
*	*	*v	*v
=102	=102	=102
1GG#] 1CC# 1G#] 1E#X] 1C#];>)	1e#X;> 1c#)	.
*Xped	*	*
!	!LO:TX:B:i:t=FINE.	!
.	.	.
==	==	==
*-	*-	*-
!!!title: @{OTL}; @{OPS} @{ONM} publisher: @{PPR}
!!!RDF**kern: > = above
!!!RDF**kern: < = below
!!!RDF**dynam: > = "Dim."
!!!RDF**kern: i = editorial accidental
!!!ENC: Mateusz Mrugas
!!!END: 2018-07-12
!!!EED: Zofia Trojan
!!!EST: revision finished 2018-07-31
!!!EED2: Emilia Ziętek
!!!EST2: revision finished 2019-08-08
!!!rism-genre: Nocturne
!!!rism-key: C-sharp minor
!!!rism-opus: op. 27, no. 1
!!!rism-title: Nocturne in C-sharp minor op. 27, no. 1
!!!rism-permalink: https://opac.rism.info/search?id=1001022569&View=rism
!!!rism-773a-OPR: 1001022567
!!!rism-parent-permalink: https://opac.rism.info/search?id=1001022567&View=rism
